X:24
T:Jenny Lind
C:Anton Wallerstein (1846)
M:2/4
L:1/8
Q:190
R:Polka
Z:Brian Martin
K:D
A>G||:FA GB|Af f/e/f|Ge e/d/e/G/|FAd2|FA GB|Af f/e/f|ge e/g/f/e/|dfd2:|]
!
K:G
gf e/g/f/e/|dB B/c/d/B/|cA A/B/c/A/|BGG2|\
gf e/g/f/e/|dB B/c/d/B/|cA A/B/c/A/|GB G2:||
